packages/icon/src/svg/bookmark.icon.svg

<svg viewBox="0 0 24 24" xmlns="http://www.w3.org/2000/svg"><path d="M17.5012 2H9C6.794 2 5 3.795 5 6v17l5.5-6 5.5 6V10h4c.552 0 1-.447 1-1V6c0-2.205-1.2918-4-3.4988-4zM14 6v12l-3.5-4L7 18V6c0-1.104.897-2 2-2h5.536c-.34.589-.536 1.272-.536 2zm5 2h-3V6c0-1.104.3982-2 1.5012-2C18.6032 4 19 4.896 19 6v2z" /></svg>

<?xml version="1.0" encoding="UTF-8"?>
<svg width="24px" height="24px" viewBox="0 0 24 24" version="1.1" xmlns="http://www.w3.org/2000/svg" xmlns:xlink="http://www.w3.org/1999/xlink">
    <!-- Generator: Sketch 46.1 (44463) - http://www.bohemiancoding.com/sketch -->
    <title>Icon/bookmark.icon</title>
    <desc>Created with Sketch.</desc>
    <defs>
        <path d="M17.5012444,2 L9,2 C6.794,2 5,3.795 5,6 L5,23 L10.5,17 L16,23 L16,10 L20,10 C20.552,10 21,9.553 21,9 L21,6 C21,3.795 19.7082444,2 17.5012444,2 Z M14,6 L14,18 L10.5,14 L7,18 L7,6 C7,4.896 7.897,4 9,4 L14.536,4 C14.196,4.589 14,5.272 14,6 Z M19,8 L16,8 L16,6 C16,4.896 16.3982444,4 17.5012444,4 C18.6032444,4 19,4.896 19,6 L19,8 Z" id="path-1"></path>
    </defs>
    <g id="Symbols" stroke="none" stroke-width="1" fill="none" fill-rule="evenodd">
        <g id="Icon/bookmark">
            <mask id="mask-2" fill="white">
                <use xlink:href="#path-1"></use>
            </mask>
            <use id="Shape" fill="#000000" fill-rule="nonzero" xlink:href="#path-1"></use>
            <g id="Color/Neutral/White" mask="url(#mask-2)" fill="#FFFFFF">
                <rect id="222222-Fill" x="0" y="0" width="24" height="24"></rect>
            </g>
        </g>
    </g>
</svg>
